X:1
T:Pavane
C:Gabriel Fauré
M:4/4
L:1/4
Q:1/4=60
K:F#m
% A section — flute melody (Op.50)
A | A B c A | F E D C | D E F G | A2 z2 |
A B c A | F E D C | D C B A | G2 F2 |
E F G A | B c B A | G F E F | F3 |]
